X:851
T:Reel 851
M:4/4
K:Amaj
L:1/8
 (3EFG |A2EC A,CEG|ABcA BAFG|A2EC A,CEC|DCB,C DFAG|A2EC A,CEG|AGBc  (3cBG AB|cdBG AFED|CDB,C A,2| (3EFG |A2cA eAcA|Acec dcBG|A2cA eAcA|Afed cABG|A2cA eAcA|Acec B2cB|AdcB AFED|CDB,C D2|
